X:1
T:Larid de Kervignac
C:Traditionnel, fichier abc : Bernard Loffet
L:1/8
Q:350
M:2/2
K:C
|: [c2C,,2][cC,]d [e2C,,2][g2C,2] | [d2G,,2][d2G,2] [e2C,,2][cC,]d | [e2C,,2]C,g [d2G,,2]G,2 :| [g2C,,2][gC,]g [g2F,,2]F,a | \
 [g2C,,2][g2C,2] [e2C,,2][gC,]f | [e2F,,2][d2F,2] [g2G,,2][g2G,2] |: [c2C,,2][cC,]d [e2C,,2][dC,]c | \
 [d2G,,2]G,2 [g2F,,2][gF,]f | [e2G,,2][d2G,2] [g2C,,2][g2C,2] | [c2C,,2][cC,]d [e2C,,2][dC,]c | \
 [d2G,,2]G,2 [g2F,,2][gF,]f | [e2G,,2]G,d [c2C,,2]C,2 :| \
Z:Created with TablEdit http://www.tabledit.com/ by Bernard Loffet
